icons/Windy Hail--1504984.svg

<svg enable-background="new 0 0 16 16" viewBox="0 0 16 16" xmlns="http://www.w3.org/2000/svg"><path d="m5.5 15c-.276 0-.5-.224-.5-.5s.224-.5.5-.5.5-.225.5-.5-.224-.5-.5-.5h-5c-.276 0-.5-.224-.5-.5s.224-.5.5-.5h5c.827 0 1.5.673 1.5 1.5s-.673 1.5-1.5 1.5z"/><path d="m7.5 11h-7c-.276 0-.5-.224-.5-.5s.224-.5.5-.5h7c.276 0 .5-.225.5-.5s-.224-.5-.5-.5-.5-.224-.5-.5.224-.5.5-.5c.827 0 1.5.673 1.5 1.5s-.673 1.5-1.5 1.5z"/><path d="m13 11h-2.5c-.276 0-.5-.224-.5-.5s.224-.5.5-.5h2.5c1.103 0 2-.897 2-2s-.897-2-2-2c-.147 0-.297.017-.428.042-.146.025-.297-.012-.411-.107-.114-.096-.181-.236-.181-.385-.146-1.16-.752-2.169-1.678-2.821-.669-.478-1.465-.729-2.302-.729-1.703 0-3.221 1.079-3.777 2.684-.085.245-.341.386-.594.321-.023-.005-.089-.005-.129-.005-1.378 0-2.5 1.122-2.5 2.5 0 .293.049.569.146.819.1.257-.028.547-.286.646-.256.1-.547-.027-.647-.285-.141-.366-.213-.763-.213-1.18 0-1.902 1.525-3.454 3.416-3.499.787-1.81 2.583-3.001 4.584-3.001 1.047 0 2.042.315 2.88.913 1.051.738 1.771 1.85 2.017 3.089 1.743-.059 3.103 1.31 3.103 2.998 0 1.654-1.346 3-3 3z"/><path d="m11.5 15c-.827 0-1.5-.673-1.5-1.5s.673-1.5 1.5-1.5 1.5.673 1.5 1.5-.673 1.5-1.5 1.5zm0-2c-.275 0-.5.225-.5.5s.225.5.5.5.5-.225.5-.5-.225-.5-.5-.5z"/></svg>

<?xml version="1.0" encoding="utf-8"?>
<!DOCTYPE svg PUBLIC "-//W3C//DTD SVG 1.0//EN" "http://www.w3.org/TR/2001/REC-SVG-20010904/DTD/svg10.dtd">
<svg    fill="#000000" xmlns="http://www.w3.org/2000/svg" xmlns:xlink="http://www.w3.org/1999/xlink" version="1.1" x="0px" y="0px" viewBox="0 0 16 16" style="enable-background:new 0 0 16 16;" xml:space="preserve"><g><path d="M5.5,15C5.224,15,5,14.776,5,14.5S5.224,14,5.5,14C5.776,14,6,13.775,6,13.5S5.776,13,5.5,13h-5C0.224,13,0,12.776,0,12.5   S0.224,12,0.5,12h5C6.327,12,7,12.673,7,13.5S6.327,15,5.5,15z"></path><path d="M7.5,11h-7C0.224,11,0,10.776,0,10.5S0.224,10,0.5,10h7C7.776,10,8,9.775,8,9.5S7.776,9,7.5,9C7.224,9,7,8.776,7,8.5   S7.224,8,7.5,8C8.327,8,9,8.673,9,9.5S8.327,11,7.5,11z"></path><path d="M13,11h-2.5c-0.276,0-0.5-0.224-0.5-0.5s0.224-0.5,0.5-0.5H13c1.103,0,2-0.897,2-2c0-1.103-0.897-2-2-2   c-0.147,0-0.297,0.017-0.428,0.042c-0.146,0.025-0.297-0.012-0.411-0.107C12.047,5.839,11.98,5.699,11.98,5.55   c-0.146-1.16-0.752-2.169-1.678-2.821C9.633,2.251,8.837,2,8,2C6.297,2,4.779,3.079,4.223,4.684   C4.138,4.929,3.882,5.07,3.629,5.005C3.606,5,3.54,5,3.5,5C2.122,5,1,6.122,1,7.5c0,0.293,0.049,0.569,0.146,0.819   c0.1,0.257-0.028,0.547-0.286,0.646c-0.256,0.1-0.547-0.027-0.647-0.285C0.072,8.314,0,7.917,0,7.5   c0-1.902,1.525-3.454,3.416-3.499C4.203,2.191,5.999,1,8,1c1.047,0,2.042,0.315,2.88,0.913c1.051,0.738,1.771,1.85,2.017,3.089   C14.64,4.943,16,6.312,16,8C16,9.654,14.654,11,13,11z"></path><path d="M11.5,15c-0.827,0-1.5-0.673-1.5-1.5s0.673-1.5,1.5-1.5s1.5,0.673,1.5,1.5S12.327,15,11.5,15z M11.5,13   c-0.275,0-0.5,0.225-0.5,0.5s0.225,0.5,0.5,0.5s0.5-0.225,0.5-0.5S11.775,13,11.5,13z"></path></g></svg>
